X: 10861
T: Dripsey, The
R: polka
M: 2/4
K: Amajor
|:c/e/f ec|Bc/B/ A/B/A/F/|EF AB|ce B2|
c/e/f ec|Bc/B/ A/B/A/F/|EF AB|cA AB:|
|:~c2 ec/e/|ae cA|EF AB|ce B2|
~c2 ec/e/|ae cA|f/g/f/e/ f/g/f/e/|cA AB:|

